X:1
T:Title
%%score ( 1 2 ) 3
L:1/8
Q:1/4=113
M:4/4
K:C
V:1 treble nm="Grand Piano, Unnamed-000"
V:2 treble 
V:3 bass nm="Choir Pad, St. George (Gauntlett)"
V:1
 [CE]2 [CF]2 [CA]2 [CG]2 | [CF]2 [CE]6 | [Ge]2 [Gd]2 [Ec]2 [Gc]2 | [GB]2 [Ec]6 | %4
w: By~Henry~John~Gauntlett,~1848 * * *||||
 [EG]2 [EA]2 [D^F]2 [DG]2 | [GB]2 [Gd]2- [Gd]/ z/ [Gd] [Gc]2 | [CA]2 [CG]2 [CE]2 [CD]2 | %7
w: |||
 EF [CE]6- | [CE]2 z2 z4 |] %9
w: ||
V:2
 x8 | x8 | x8 | x8 | x8 | x8 | x8 | B,2 z2 z4 | x8 |] %9
V:3
 [C,G,]2 [F,A,]2 F,2 [E,G,]2 | [D,G,]2 [C,G,]6 | C2 [G,B,]2 [A,C]2 [G,D]2 | [G,D]2 [C,C]6 | %4
 [E,B,]2 [C,C]2 [D,A,]2 [G,B,]2 | [G,D]2 [F,B,]2- [F,B,][F,B,] [E,C]2 | %6
 [F,C]2 [E,G,]2 [C,G,]2 [G,,G,]2 | [G,,G,]2 [C,G,]6- | [C,G,]2 z2 z4 |] %9

